X: 0
T: This Day Is Born Emmanuel
Z: M. Praetorius
Z: Copyright © 2005 by Douglas D. Anderson
Z: Released to the Public Domain
L: 1/4
M: 4/4
V: P1 name="Soprano"
%%MIDI program 1 19
V: P2 name="Alto"
%%MIDI program 2 60
V: P3 name="Tenor"
%%MIDI program 3 57
V: P4 name="Bass"
%%MIDI program 4 58
K: F
[V: P1] zz2 | z4 | z4 | f2 d2 | c3z | z4 | z4 | c2 B2 | A4 | F2 G2 | A3 B | c2 A2 | B2 G2 | F4|]
[V: P2] zz2 | z4 | z4 | A2 B2 | A3z | z4 | z4 | A2 (G F) | E4 | D2 E2 | F3 F | F2 F2 | F3 E | C4|]
[V: P3]  F, C C | C C D B, | C3z | F2 F2 | F3 F | F E D C | C =B, C2 | (F E) D2 | ^C4 | A,2 =C2 | C3 D | C2 D2 | D C3 | A,4|]
w: This day is born Em- man u el God with us. Fore- told to us by Ga- bri el, God_ with us. God with us. Who dare the truth de- ny.
[V: P4] zz2 | z4 | z4 | D,2 B,,2 | F,3z | z4 | z4 | F,2 G,2 | A,4 | D,2 =C,2 | F,3 B,, | A,,2 D,2 | G,, C,3 | F,4|]

